X:1757
T:Bonny Gordie. JMT.063
T:Bonny Geordie. JMT.063
M:C
L:1/8
Q:200
S:J.Moore,Tyneside,1841.(45b)
R:Reel
O:England
A:Northumbria
Z:vmp.Chris Partington
K:A
e-gae f-dec|A-aac e2f2|eaae fdec|B=ggBd2f2:|!
|:e-AcA e-Ace|A-aace2f2|e-Ace a-ecA|B=ggB d2f2
